!!!OTL: Heinrich schlief bei seiner Neuverm&auml;hlten (3-13), S. 36
!!!id: K1150
**kern
*clefG2
*k[b-]
*F:
{8c
8c
=1
4.f
8f
8f
8f
8a
8f
=2
8f
8e
4e}
4r
=3
{8c
8e
=4
4.g
8a
8b-
8g
8f
8g
=5
4a
4f}
4r
=6
{8f
8dd
=7
4.dd
8cc
8b-
8a
8g
8f
=8
8e
8g
4cc}
4r
=9
{8g
8b-
=10
4.a
8cc
8f
8dd
8cc
8e
=11
4g
4f}
4r
=12
{8f
8dd
=13
4.dd
8cc
8b-
8a
8g
8f
=14
8e
8g
4cc}
4r
=15
{8g
8b-
=16
4.a
8cc
8f
8dd
8cc
8e
=17
4g
4f}
4r
==
*-
!!!minrhy: 8
!!!meters: 4/4 ]  ZZ[6
!!!cut: Heinrich schlief bei seiner Neuverm&auml;hlten (3-13), S. 36
!!!reg: Luxemburg
!!!trd: KINTZELE, Guillaume: An der Ucht, Bd. 3 Luxemburg 1928
!!!rhy1: XX  X_.XXXXX  XXX_0_
!!!rhy2: XX  X_.XXXXX  X_X_0_
!!!key: K1150  08  F 4/4 ]  ZZ[6
!!!mod: HEPTATONIK IONISCH]  AMBITUS[9
!!!kad: -715151
!!!akz: 111_243_64-7_312_64-7_312_
!!!fot: 'a__b__c__d__c__d__
!!!for: 'a__b__a__b__a__b__
!!!fok: '^a_Ma_~a_^d_~a_^d_
!! PHRAS[AUFTAKTIG]
!!!fkt: Untreue, Nachsicht
!! KINTZELE
!! PR[25] 2K[8] 2G[15] 3K[3] 3G[5] 4A[3] 4Ü[0] 5A[0] 6K[0] 6G[0]
!! 7K[4] 7G[0] 8A[0] MEHR[0] SI[38] ABS[73] SR[23] SP[15]
!! ST[15] 2k[3] 2g[11] 3k[12] 3g[5] 4d[3] 4ü[0] 5d[3] 6k[0] 6g[0]
!! 7k[0] 7g[0] 8d[0] mehr[0] si[37] dm[+1] sr[14] sp[23]
!! 1F[4] 2F[55] 3F[33] 4F[4] LF[0] 2P[1] 3P[4] 4P[0] TRI[0] DF[6] AB[80]
!! TF[0] U3K[0] U3[0] U4[0] U4Ü[0] U5[15] U6K[0] U6[8] U7K[0] U7[5]
!! N1[14] N2K[0] N2[14] N3K[0] N3[22] N4[14] N4Ü[0] N5[9] N6K[0] N6[0]
!!!n7k: 0] N7[0] O1[0] O2K[0] O2[0] O3K[0] O3[0] HÖ[0
!!!RNB: symbol: &auml;      = a umlaut  (UTF-8: Å„)
